ztoexpress.svg

<svg viewBox="0 0 24 24" xmlns="http://www.w3.org/2000/svg"><path d="M9.80462 7.59251C12.5788 7.59423 15.353 7.59251 18.1272 7.59423C18.06 7.73398 17.9892 7.87373 17.9185 8.01347C15.1443 8.01347 12.3683 8.01347 9.59413 8.01347C9.66487 7.87373 9.73388 7.73225 9.80462 7.59251ZM20.1855 7.62184C20.6772 7.57526 21.1758 7.58388 21.6623 7.66842C22.016 7.73053 22.3627 7.83922 22.6785 8.01347C21.3276 8.01347 19.9767 8.0152 18.6258 8.01175C19.121 7.79781 19.6506 7.6736 20.1855 7.62184ZM9.2094 8.78466C9.28991 8.62249 9.37043 8.46031 9.45094 8.29814C12.2269 8.29986 15.0028 8.29814 17.7787 8.29986C17.7356 8.38958 17.689 8.47756 17.6442 8.56728C17.7822 8.47411 17.9185 8.36887 18.0703 8.29986C19.7438 8.29641 21.419 8.29986 23.0925 8.29814C23.2564 8.44133 23.4048 8.60351 23.5238 8.78466C18.7518 8.78466 13.9797 8.78466 9.2094 8.78466ZM8.82812 9.54722C8.90748 9.3885 8.98512 9.22805 9.06621 9.06933C13.94 9.06933 18.8156 9.06933 23.6912 9.06933C23.7688 9.22115 23.8275 9.38332 23.8775 9.54895C18.8605 9.54895 13.8434 9.54895 8.82812 9.54722ZM11.623 9.83361C12.603 9.83361 13.5829 9.83361 14.5629 9.83361C14.4818 9.99579 14.4007 10.158 14.3196 10.3184C13.3397 10.3196 12.3603 10.3196 11.3815 10.3184C11.4591 10.1562 11.5419 9.99579 11.623 9.83361ZM16.3934 9.83361C17.3233 9.83361 18.2532 9.83361 19.1814 9.83361C18.9657 9.95956 18.7846 10.1321 18.6207 10.3201C17.7753 10.319 16.9299 10.3184 16.0845 10.3184C16.1794 10.1528 16.2829 9.99061 16.3934 9.83361ZM21.1344 9.83361C22.0712 9.83361 23.008 9.83361 23.9448 9.83361C23.9724 9.99406 23.9879 10.1562 23.9983 10.3184C23.161 10.3184 22.3231 10.319 21.4846 10.3201C21.4345 10.1183 21.2983 9.95438 21.1344 9.83361ZM11.2366 10.6048C12.2165 10.6048 13.197 10.6048 14.1781 10.6048C14.0988 10.7635 14.0177 10.9222 13.9383 11.0827C12.9567 11.0844 11.975 11.0827 10.9933 11.0827C11.0761 10.924 11.1572 10.7653 11.2366 10.6048ZM15.9293 10.6048C16.7539 10.6031 17.5769 10.6048 18.4016 10.6031C18.298 10.7566 18.2083 10.9171 18.1255 11.0827C17.3215 11.0844 16.5159 11.0827 15.7119 11.0844C15.7774 10.9211 15.8499 10.7612 15.9293 10.6048ZM21.5363 10.6048C22.3576 10.6031 23.1788 10.6048 24 10.6048C23.9983 10.7635 23.9845 10.924 23.9638 11.0844C23.1598 11.0827 22.3541 11.0827 21.5484 11.0827C21.5657 10.924 21.545 10.7635 21.5363 10.6048ZM15.5997 11.3674C16.3985 11.3691 17.1991 11.3674 17.9978 11.3691C17.9357 11.5278 17.88 11.6894 17.8305 11.8539C17.0357 11.8539 16.2404 11.8539 15.4445 11.8539C15.4911 11.69 15.5463 11.5295 15.5997 11.3674ZM10.8501 11.3691C11.8318 11.3691 12.8135 11.3674 13.7934 11.3691C13.714 11.5313 13.633 11.6917 13.5519 11.8539C12.5719 11.8539 11.5903 11.8556 10.6086 11.8522C10.6897 11.6917 10.7708 11.5295 10.8501 11.3691ZM21.526 11.3674C22.3248 11.3691 23.1236 11.3674 23.9224 11.3674C23.8965 11.5313 23.8603 11.6934 23.8223 11.8539C23.027 11.8539 22.2316 11.8539 21.4363 11.8539C21.4708 11.6917 21.5053 11.5313 21.526 11.3674ZM10.4654 12.1386C11.4471 12.1386 12.4287 12.1386 13.4087 12.1386C13.331 12.299 13.2499 12.4594 13.1706 12.6182C12.1889 12.6182 11.2072 12.6182 10.2256 12.6182C10.3061 12.4583 10.386 12.2984 10.4654 12.1386ZM15.3686 12.1386C16.1639 12.1386 16.9592 12.1386 17.7546 12.1386C17.7166 12.2973 17.6838 12.456 17.6614 12.6182C16.8632 12.6182 16.065 12.6182 15.2668 12.6182C15.2944 12.456 15.3289 12.2973 15.3686 12.1386ZM21.3586 12.1386C22.154 12.1386 22.9493 12.1403 23.7464 12.1386C23.7015 12.3007 23.648 12.4594 23.5928 12.6182C22.7935 12.6182 21.9947 12.6182 21.1965 12.6182C21.2568 12.4594 21.3121 12.3007 21.3586 12.1386ZM9.8443 13.3825C9.92366 13.222 10.003 13.0616 10.0841 12.9028C11.0641 12.9028 12.0457 12.9028 13.0274 12.9028C12.948 13.0633 12.8669 13.222 12.7876 13.3825C11.8065 13.3825 10.8254 13.3825 9.8443 13.3825ZM15.2236 12.9028C16.0259 12.9028 16.8281 12.9028 17.6304 12.9028C17.6286 13.0633 17.6269 13.2237 17.6476 13.3825C16.8281 13.3807 16.0086 13.3825 15.1874 13.3825C15.1891 13.222 15.2064 13.0616 15.2236 12.9028ZM20.8048 13.3825C20.9049 13.2289 20.9946 13.0685 21.074 12.9028C21.8762 12.9028 22.6802 12.9028 23.4824 12.9028C23.4169 13.065 23.3461 13.2255 23.2668 13.3825C22.4455 13.3825 21.6261 13.3825 20.8048 13.3825ZM9.6942 13.674C10.6776 13.6723 11.6593 13.674 12.6427 13.674C12.5621 13.8339 12.4822 13.9932 12.4028 14.1519C11.4212 14.1519 10.4378 14.1536 9.45611 14.1519C9.53375 13.9915 9.61484 13.8328 9.6942 13.674ZM15.1874 13.674C16.0259 13.6723 16.8661 13.674 17.7063 13.6723C17.7598 13.8552 17.8529 14.026 17.9961 14.1519C17.0771 14.1519 16.1587 14.1519 15.2409 14.1519C15.2098 13.9949 15.1978 13.8345 15.1874 13.674ZM20.5926 13.6723C21.4311 13.674 22.2696 13.6723 23.108 13.674C23.0132 13.8379 22.9114 13.9967 22.8027 14.1519C21.8791 14.1531 20.9561 14.1531 20.0336 14.1519C20.2458 14.026 20.4322 13.8604 20.5926 13.6723ZM9.31292 14.4452L9.31809 14.4366C10.298 14.44 11.2797 14.4366 12.2597 14.4383C12.1803 14.597 12.1009 14.7575 12.0198 14.9162C11.0399 14.9162 10.0617 14.9179 9.08346 14.9162C9.15937 14.7592 9.24218 14.6039 9.31292 14.4452ZM15.303 14.4383C17.7322 14.4366 20.1579 14.4383 22.5853 14.4383C22.449 14.6057 22.3041 14.7661 22.1488 14.9162C19.9267 14.9179 17.7063 14.9162 15.4859 14.9179C15.41 14.7644 15.3513 14.6022 15.303 14.4383ZM8.697 15.6874C8.77636 15.5275 8.8563 15.3677 8.93681 15.2078C9.91561 15.2078 10.895 15.2078 11.8749 15.2078C11.7944 15.3677 11.7145 15.5275 11.6351 15.6874C10.6552 15.6874 9.67695 15.6874 8.697 15.6874ZM15.6515 15.2078C17.7115 15.2078 19.7697 15.2095 21.8296 15.2078C21.6174 15.3838 21.3931 15.5494 21.1533 15.6839C19.4609 15.6891 17.7684 15.6874 16.0759 15.6857C15.9103 15.5528 15.7705 15.3855 15.6515 15.2078ZM8.55381 15.9721C9.53203 15.9721 10.512 15.9721 11.4919 15.9721C11.4246 16.1187 11.3487 16.2619 11.278 16.4068C10.2957 16.4057 9.31349 16.4057 8.33125 16.4068C8.40716 16.2636 8.47617 16.1153 8.55381 15.9721ZM16.4779 15.9738C17.8495 15.9703 19.2228 15.9721 20.5944 15.9721C20.0681 16.2102 19.4971 16.3395 18.9226 16.3879C18.4223 16.4241 17.9133 16.4155 17.4199 16.3171C17.0921 16.2481 16.766 16.1446 16.4779 15.9738Z" fill="#009dda" fill-rule="nonzero" opacity="1" stroke="none"/><path d="M3.4298 7.59251C5.55532 7.59251 7.68025 7.59251 9.80461 7.59251C9.73388 7.73225 9.66487 7.87373 9.59413 8.01347C9.54698 8.10894 9.49925 8.20382 9.45094 8.29814C9.37043 8.46031 9.28991 8.62249 9.2094 8.78466C9.1611 8.88012 9.11336 8.97501 9.06621 9.06933C8.98512 9.22805 8.90748 9.3885 8.82812 9.54722C8.79362 9.59898 8.74358 9.63693 8.70218 9.68179C7.11494 11.269 5.52599 12.8563 3.93875 14.4435C5.73129 14.4452 7.5221 14.4418 9.31292 14.4452C9.24218 14.6039 9.15937 14.7592 9.08346 14.9162C9.03343 15.0128 8.98512 15.1112 8.93681 15.2078C8.8563 15.3677 8.77636 15.5275 8.697 15.6874C8.6487 15.7823 8.60211 15.8772 8.55381 15.9721C8.47617 16.1153 8.40716 16.2636 8.33125 16.4068C5.55474 16.4068 2.77766 16.4068 0 16.4068C0.322622 15.7581 0.643519 15.1094 0.969592 14.4625C0.986845 14.4314 1.01445 14.4073 1.04033 14.3814C1.5303 13.8949 2.01337 13.4032 2.50679 12.9218C3.62821 11.8039 4.74272 10.6807 5.86931 9.56792C4.73237 9.56792 3.59715 9.56792 2.46021 9.56792C2.77938 8.90715 3.10718 8.25156 3.4298 7.59251Z" fill="#0074bb"/></svg>

<svg viewBox="0 0 24 24" xmlns="http://www.w3.org/2000/svg"><path d="m9.805 7.593 8.322.001c-.067.14-.138.28-.208.42H9.594l.21-.421Zm10.38.029a5.57 5.57 0 0 1 1.477.046c.354.063.7.171 1.017.345-1.351 0-2.702.002-4.053-.001a5.191 5.191 0 0 1 1.56-.39ZM9.21 8.785l.242-.487c2.776.002 5.552 0 8.328.002-.043.09-.09.178-.135.267.138-.093.275-.198.426-.267 1.674-.004 3.349 0 5.023-.002.163.143.312.306.43.487H9.21Zm-.38.762c.078-.159.156-.319.237-.478h14.625c.078.152.137.314.187.48-5.018 0-10.035 0-15.05-.002Zm2.794.287h2.94l-.243.484c-.98.002-1.96.002-2.938 0 .077-.162.16-.322.241-.484Zm4.77 0h2.788a2.288 2.288 0 0 0-.56.486l-2.537-.002a6.2 6.2 0 0 1 .31-.484Zm4.741 0h2.81c.028.16.044.322.054.484l-2.513.002a.884.884 0 0 0-.35-.486Zm-9.897.77h2.941l-.24.479h-2.945c.083-.159.164-.318.244-.478Zm4.692 0h2.473a4.247 4.247 0 0 0-.277.479l-2.413.001c.065-.163.138-.323.217-.48Zm5.607 0H24c-.002.16-.015.32-.036.48l-2.416-.001c.018-.159-.003-.32-.012-.478Zm-5.936.763c.798.002 1.6 0 2.398.002-.062.159-.118.32-.168.485h-2.385c.046-.164.101-.324.155-.487Zm-4.75.002c.982 0 1.963-.002 2.943 0-.079.162-.16.323-.241.485-.98 0-1.962.002-2.943-.002.08-.16.162-.322.241-.483Zm10.676-.002c.799.002 1.598 0 2.396 0a6.562 6.562 0 0 1-.1.487h-2.386c.035-.162.07-.323.09-.487Zm-11.06.772h2.943c-.078.16-.16.32-.238.48h-2.945l.24-.48Zm4.903 0h2.386c-.038.158-.071.317-.094.48h-2.394a6.38 6.38 0 0 1 .102-.48Zm5.99 0h2.387c-.044.162-.098.32-.153.48h-2.396c.06-.16.115-.318.162-.48ZM9.844 13.383c.08-.161.159-.321.24-.48h2.943l-.24.48H9.845Zm5.38-.48h2.406c-.001.16-.003.32.018.48-.82-.002-1.64 0-2.46 0 .001-.161.018-.321.036-.48Zm5.58.48c.1-.154.19-.314.27-.48h2.408a6.267 6.267 0 0 1-.215.48h-2.462Zm-11.11.291c.984-.002 1.965 0 2.949 0l-.24.478c-.982 0-1.965.002-2.947 0 .078-.16.159-.32.238-.478Zm5.493 0c.839-.002 1.68 0 2.52-.002.053.183.146.354.29.48H15.24a3.681 3.681 0 0 1-.054-.478Zm5.406-.002c.838.002 1.677 0 2.515.002a6.54 6.54 0 0 1-.305.478h-2.77a2.25 2.25 0 0 0 .56-.48Zm-11.28.773.005-.008c.98.003 1.962 0 2.942.001l-.24.478c-.98 0-1.958.002-2.937 0 .076-.157.16-.312.23-.47Zm5.99-.007h7.282a5.44 5.44 0 0 1-.436.478c-2.222.002-4.443 0-6.663.002a2.983 2.983 0 0 1-.183-.48Zm-6.606 1.25.24-.48h2.938l-.24.48H8.697Zm6.955-.48c2.06 0 4.118.002 6.178 0a4.586 4.586 0 0 1-.677.476c-1.692.005-3.385.003-5.077.002a2.12 2.12 0 0 1-.425-.478Zm-7.098.764h2.938c-.067.147-.143.29-.214.435H8.331c.076-.143.145-.292.223-.435Zm7.924.002c1.371-.004 2.745-.002 4.116-.002a5.091 5.091 0 0 1-1.671.416c-.5.036-1.01.027-1.503-.07a3.088 3.088 0 0 1-.942-.344Z" fill="#009dda"/><path d="M3.43 7.593h6.375l-.21.42-.144.285-.242.487-.143.284-.238.478c-.034.052-.084.09-.126.135L3.94 14.443c1.792.002 3.583-.001 5.374.002-.07.159-.154.314-.23.471-.05.097-.098.195-.146.292l-.24.48-.143.284c-.078.143-.147.292-.223.435H0c.323-.649.644-1.298.97-1.944.017-.032.044-.056.07-.082.49-.486.973-.978 1.467-1.46 1.121-1.117 2.236-2.24 3.362-3.353H2.46c.32-.66.647-1.316.97-1.975Z" fill="#0074bb"/></svg>
